X: 16183
T: Green Mountain, The
R: reel
M: 4/4
K: Dmajor
|:AF3 AFEA|DF3 ABde|fd3 efdB|Agfd efdB|
AF3 AFEA|DF3 ABde|fd3 efdB|AFEA FDdB:|
|:df3 bfaf|dafd efde|fd3 efdB|Agfd edBd|
fd3 bdad|dafd efde|fd3 efdB|AFEA FDdB:|

